src/icons/m-box-2.svg

<svg width="512" height="512" xmlns="http://www.w3.org/2000/svg">

 <g>
  <title>background</title>
  <rect fill="none" id="canvas_background" height="402" width="582" y="-1" x="-1"/>
 </g>
 <g>
  <title>Layer 1</title>
  <g id="svg_1">
   <g id="svg_2">
    <path fill="#ffffff" stroke="#ffffff" id="svg_3" d="m491.729,112.971l-232.468,-112.226c-2.061,-0.994 -4.461,-0.994 -6.521,0l-232.469,112.226c-2.592,1.251 -4.239,3.876 -4.239,6.754l0,272.549c0,2.878 1.647,5.503 4.239,6.754l232.468,112.226c1.03,0.497 2.146,0.746 3.261,0.746s2.23,-0.249 3.261,-0.746l232.468,-112.226c2.592,-1.251 4.239,-3.876 4.239,-6.754l0,-272.548c0,-2.88 -1.648,-5.503 -4.239,-6.755zm-235.729,-97.143l215.217,103.897l-62.387,30.118c-0.395,-0.301 -0.812,-0.579 -1.27,-0.8l-213.755,-103.19l62.195,-30.025zm-79.133,38.505l214.904,103.746l-44.015,21.249l-214.815,-103.704l43.926,-21.291zm219.932,117.974l0,78.546l-41.113,19.848l0,-78.546l41.113,-19.848zm84.169,215.261l-217.468,104.982l0,-255.892l51.873,-25.042c3.73,-1.801 5.294,-6.284 3.493,-10.015c-1.801,-3.729 -6.284,-5.295 -10.015,-3.493l-52.851,25.515l-20.796,-10.04c-3.731,-1.803 -8.214,-0.237 -10.015,3.493c-1.801,3.73 -0.237,8.214 3.493,10.015l19.818,9.567l0,255.892l-217.468,-104.984l0,-255.892l165.6,79.945c1.051,0.508 2.162,0.748 3.255,0.748c2.788,0 5.466,-1.562 6.759,-4.241c1.801,-3.73 0.237,-8.214 -3.493,-10.015l-162.37,-78.386l74.505,-35.968l225.294,108.763c0.033,0.046 0.07,0.087 0.104,0.132l0,89.999c0,2.581 1.327,4.98 3.513,6.353c1.214,0.762 2.599,1.147 3.988,1.147c1.112,0 2.227,-0.247 3.26,-0.746l56.113,-27.089c2.592,-1.251 4.239,-3.875 4.239,-6.754l0,-90.495l69.169,-33.392l0,255.893z"/>
   </g>
  </g>
  <g id="svg_4">
   <g id="svg_5">
    <path fill="#ffffff" id="svg_6" d="m92.926,358.479l-34.115,-16.469c-3.732,-1.803 -8.214,-0.237 -10.015,3.493c-1.801,3.73 -0.237,8.214 3.493,10.015l34.115,16.469c1.051,0.508 2.162,0.748 3.255,0.748c2.788,0 5.466,-1.562 6.759,-4.241c1.802,-3.731 0.238,-8.213 -3.492,-10.015z"/>
   </g>
  </g>
  <g id="svg_7">
   <g id="svg_8">
    <path fill="#ffffff" id="svg_9" d="m124.323,338.042l-65.465,-31.604c-3.731,-1.801 -8.214,-0.237 -10.015,3.494c-1.8,3.73 -0.236,8.214 3.494,10.015l65.465,31.604c1.051,0.507 2.162,0.748 3.255,0.748c2.788,0 5.466,-1.562 6.759,-4.241c1.801,-3.732 0.237,-8.216 -3.493,-10.016z"/>
   </g>
  </g>
  <g id="svg_10"/>
  <g id="svg_11"/>
  <g id="svg_12"/>
  <g id="svg_13"/>
  <g id="svg_14"/>
  <g id="svg_15"/>
  <g id="svg_16"/>
  <g id="svg_17"/>
  <g id="svg_18"/>
  <g id="svg_19"/>
  <g id="svg_20"/>
  <g id="svg_21"/>
  <g id="svg_22"/>
  <g id="svg_23"/>
  <g id="svg_24"/>
 </g>
</svg>

<?xml version="1.0" encoding="iso-8859-1"?>
<!-- Generator: Adobe Illustrator 19.0.0, SVG Export Plug-In . SVG Version: 6.00 Build 0)  -->
<svg version="1.1" id="Capa_1" xmlns="http://www.w3.org/2000/svg" xmlns:xlink="http://www.w3.org/1999/xlink" x="0px" y="0px"
	 viewBox="0 0 512 512" style="enable-background:new 0 0 512 512;" xml:space="preserve">
<g>
	<g>
		<path d="M491.729,112.971L259.261,0.745c-2.061-0.994-4.461-0.994-6.521,0L20.271,112.971c-2.592,1.251-4.239,3.876-4.239,6.754
			v272.549c0,2.878,1.647,5.503,4.239,6.754l232.468,112.226c1.03,0.497,2.146,0.746,3.261,0.746s2.23-0.249,3.261-0.746
			l232.468-112.226c2.592-1.251,4.239-3.876,4.239-6.754V119.726C495.968,116.846,494.32,114.223,491.729,112.971z M256,15.828
			l215.217,103.897l-62.387,30.118c-0.395-0.301-0.812-0.579-1.27-0.8L193.805,45.853L256,15.828z M176.867,54.333l214.904,103.746
			l-44.015,21.249L132.941,75.624L176.867,54.333z M396.799,172.307v78.546l-41.113,19.848v-78.546L396.799,172.307z
			 M480.968,387.568L263.5,492.55V236.658l51.873-25.042c3.73-1.801,5.294-6.284,3.493-10.015
			c-1.801-3.729-6.284-5.295-10.015-3.493L256,223.623l-20.796-10.04c-3.731-1.803-8.214-0.237-10.015,3.493
			c-1.801,3.73-0.237,8.214,3.493,10.015l19.818,9.567V492.55L31.032,387.566V131.674l165.6,79.945
			c1.051,0.508,2.162,0.748,3.255,0.748c2.788,0,5.466-1.562,6.759-4.241c1.801-3.73,0.237-8.214-3.493-10.015l-162.37-78.386
			l74.505-35.968L340.582,192.52c0.033,0.046,0.07,0.087,0.104,0.132v89.999c0,2.581,1.327,4.98,3.513,6.353
			c1.214,0.762,2.599,1.147,3.988,1.147c1.112,0,2.227-0.247,3.26-0.746l56.113-27.089c2.592-1.251,4.239-3.875,4.239-6.754v-90.495
			l69.169-33.392V387.568z"/>
	</g>
</g>
<g>
	<g>
		<path d="M92.926,358.479L58.811,342.01c-3.732-1.803-8.214-0.237-10.015,3.493c-1.801,3.73-0.237,8.214,3.493,10.015
			l34.115,16.469c1.051,0.508,2.162,0.748,3.255,0.748c2.788,0,5.466-1.562,6.759-4.241
			C98.22,364.763,96.656,360.281,92.926,358.479z"/>
	</g>
</g>
<g>
	<g>
		<path d="M124.323,338.042l-65.465-31.604c-3.731-1.801-8.214-0.237-10.015,3.494c-1.8,3.73-0.236,8.214,3.494,10.015
			l65.465,31.604c1.051,0.507,2.162,0.748,3.255,0.748c2.788,0,5.466-1.562,6.759-4.241
			C129.617,344.326,128.053,339.842,124.323,338.042z"/>
	</g>
</g>
<g>
</g>
<g>
</g>
<g>
</g>
<g>
</g>
<g>
</g>
<g>
</g>
<g>
</g>
<g>
</g>
<g>
</g>
<g>
</g>
<g>
</g>
<g>
</g>
<g>
</g>
<g>
</g>
<g>
</g>
</svg>
